X:14127
T:Reel des Bottes Sauvages
M:2/4
L:1/16
K:D
FG|ABAG F2A2|f4 d4|ABAG F2A2|f4 d4|!
e2ef g2ge|dcde fafd|c2c2 egec|d4 d2:|!
|:df|a2g2 e2ce|g2f2 d4|f2e2 B2c2|dcde f2df|!
a2g2 e2ce|g2f2 d2dc|B2g2 e2c2|d4 d2:|!


